X:79
T:Cathal McConnel's
R:Jig
S:Andy Dickson, Belfast (fiddle)
D:Private tape
C:Cathal McConnell (reportedly)
Z:Bernie Stocks
N:As played
M:6/8
K:D
FGA {B}ABc | ded cAG | FGA {d}BAB | =cBc A2G | FGA {B}ABc |
dfd ecA | gfg bag |1 fdc d(3.A.A.G :|2 fdc d2g || {g}fed efg |
afd {d}=cAG | FGA {d}BAB | =cBc A2g | {g}fed efg |
afd {d}cBA | {a}gfg bag |1 fdc d2g :|2 fdc d2A || D3
<end>
<start>
